X:1
T:Campinas, 77.77.87.87
T:Campinas, 77.77.87.87
T:William Evander Penn, 1887
T:Public Domain Courtesy of the Cyber Hymnal™
C:William Evander Penn, 1887
Z:Public Domain
Z:Courtesy of the Cyber Hymnal™
%%score ( 1 2 ) ( 3 4 )
L:1/8
Q:1/4=97
M:4/4
K:F
V:1 treble 
V:2 treble 
V:3 bass 
V:4 bass 
V:1
 C[CF][CF][CG] [FA]2 [FG]2 | F6 z2 | [EG][EG][EG][FA] [GB]2 [FA]2 | [EG]6 z2 | %4
 [FA]3 [FB] [FA][FG][CF]C | ([B,D]4 [DF]2) [DF][DG] | [CA]3 [EB] [FA]2 [CG]2 | [CF]6 z2 | %8
 [Fc]2 z [F=B] [Fc][Fd][Fc][FA] | [DG]4 [CF]2 z2 | [Fc]3 [F=B] [Fc][Fd] [Fc]>[FA] | [EG]6 z2 | %12
 [FA]3 [FB] [FA][FG][CF]C | [B,D]4 [DF]2 z2 | C2 [CF]2 [CA]2 F2 | [FA]2 [DG]2 !fermata![CF]4 |] %16
V:2
 C x7 | F6 x2 | x8 | x8 | x7 C | x8 | x8 | x8 | x8 | x8 | x8 | x8 | x7 C | x8 | C2 x2 F2 x2 | x8 |] %16
V:3
 [F,A,][F,A,][F,A,][F,B,] [F,C]2 [F,B,]2 | [F,A,]6 z2 | [C,C][C,C][C,C][C,C] [E,C]2 [F,C]2 | %3
 [C,C]6 z2 | [F,C]3 [F,D] [F,C][F,B,][F,A,][F,A,] | (F,4 B,2) [B,,B,][B,,B,] | %6
 [C,F,]3 (G,/C/) [C,C]2 [C,B,]2 | [F,A,]6 z2 | [F,A,]2 z [F,^G,] [F,A,][F,=B,][F,A,][F,C] | %9
 [B,,B,]4 [F,,A,]2 z2 | [F,A,]3 [F,^G,] [F,A,][F,B,] [F,A,]>[F,C] | [C,C]6 z2 | %12
 [F,C]3 [F,D] [F,C][F,B,][F,A,][F,A,] | [B,,F,]4 [B,,B,]2 z2 | [F,A,]2 [F,A,]2 F,2 [D,A,]2 | %15
 [C,C]2 [C,B,]2 !fermata![F,,F,A,]4 |] %16
V:4
 x8 | x8 | x8 | x8 | x8 | B,,6 x2 | x3 C, x4 | x8 | x8 | x8 | x8 | x8 | x8 | x8 | x4 .F,2 x2 | %15
 x8 |] %16

